html/dist/img/competence.svg

<svg width="56" height="55" viewBox="0 0 56 55" fill="none" xmlns="http://www.w3.org/2000/svg">
<g filter="url(#filter0_d)">
<path d="M46.9769 35.5063C48.603 34.2495 49.5463 32.3051 49.5267 30.2506C49.6449 26.836 46.9826 23.9689 43.5699 23.8335C42.2043 23.838 40.8869 24.335 39.8587 25.2349C38.3899 26.5433 37.5694 28.4303 37.613 30.3964C37.6566 32.3637 38.5608 34.2116 40.0871 35.4523C40.0997 35.4627 40.1146 35.4684 40.1272 35.4787C37.6049 36.5301 35.5038 38.3906 34.1566 40.7677C33.3269 40.0962 32.3997 39.5556 31.4071 39.1619C31.8787 38.805 32.2976 38.3826 32.6499 37.9074C33.5002 36.7516 33.9558 35.3513 33.9466 33.9166C33.942 30.5491 31.3463 27.7531 27.9897 27.4994C24.9923 27.5763 22.501 29.8328 22.1292 32.809C22.0638 33.174 22.0317 33.5447 22.0328 33.9166C22.0133 35.9654 22.9531 37.9063 24.5712 39.1619C23.5785 39.5556 22.6513 40.0974 21.8217 40.7677C20.5238 38.4893 18.5408 36.6793 16.1528 35.597C17.8523 34.3482 18.8461 32.3579 18.8243 30.2495C18.9425 26.8349 16.2802 23.9677 12.8674 23.8323C9.45461 23.9677 6.79231 26.8349 6.91051 30.2495C6.89444 32.2432 7.78264 34.1358 9.32608 35.3961C4.27231 37.2015 0.541656 43.2423 0.541656 50.417C0.541656 50.9231 0.952476 51.334 1.45854 51.334H16.3605C16.2297 52.2454 16.1608 53.1636 16.154 54.0841C16.154 54.5903 16.5648 55.0012 17.0708 55.0012H38.9108C39.4169 55.0012 39.8277 54.5903 39.8277 54.0841C39.822 53.1636 39.752 52.2454 39.6212 51.334H54.5231C55.0292 51.334 55.44 50.9231 55.44 50.417C55.4389 43.3938 51.8677 37.446 46.9769 35.5063ZM39.4456 30.2495C39.4238 28.863 40.0125 27.5373 41.0544 26.6225C41.7499 26.0108 42.6426 25.671 43.5699 25.6653C45.9694 25.8007 47.8112 27.8472 47.6941 30.2483C47.8112 32.6495 45.9694 34.696 43.5699 34.8314C42.7138 34.8314 41.8841 34.541 41.2151 34.0061C40.079 33.0948 39.4261 31.7083 39.4456 30.2495ZM23.8654 33.9166C23.8654 33.6469 23.8884 33.3783 23.9366 33.1132C24.1672 31.0242 25.8897 29.4174 27.9897 29.3324C30.0966 29.4197 31.8225 31.0369 32.0463 33.1338C32.0922 33.3921 32.1151 33.6538 32.114 33.9155C32.122 34.9588 31.7926 35.9769 31.1741 36.8182C30.4443 37.8569 29.2589 38.4824 27.9897 38.4985C25.589 38.3642 23.7484 36.3178 23.8654 33.9166ZM12.8674 25.6664C15.2669 25.8019 17.1087 27.8484 16.9917 30.2495C17.1087 32.6506 15.2669 34.6971 12.8674 34.8325C10.4679 34.6971 8.62608 32.6506 8.74313 30.2495C8.62608 27.8484 10.4679 25.8019 12.8674 25.6664ZM16.683 49.4999H2.39608C2.74379 42.3447 7.12166 36.6667 12.4554 36.6667C15.5917 36.6667 18.5454 38.6741 20.4572 42.0646C18.5833 44.1788 17.2843 46.7395 16.683 49.4999ZM18.0084 53.167C18.0485 52.3005 18.1518 51.4396 18.3159 50.588C18.8082 47.6795 20.1681 44.9892 22.2164 42.8681C22.2405 42.8451 22.2635 42.8199 22.2841 42.7935C23.792 41.2589 25.8403 40.3751 27.9897 40.3327C30.1402 40.3751 32.1885 41.2578 33.6953 42.7912C33.7171 42.8176 33.74 42.844 33.7653 42.8669C35.8136 44.9892 37.1735 47.6807 37.6646 50.5891C37.8276 51.4396 37.9297 52.3005 37.971 53.1647H18.0084V53.167ZM39.2964 49.4999C38.6963 46.7395 37.3972 44.1788 35.5222 42.0658C37.434 38.6741 40.3877 36.6667 43.524 36.6667C48.8577 36.6667 53.239 42.3447 53.5833 49.4999H39.2964Z" fill="#7C7C7D"/>
<path d="M19.0603 12.5686L21.1626 12.8316L19.8615 14.5045C19.4888 14.986 19.5322 15.6698 19.9617 16.1013L21.8993 18.0391C22.3317 18.4687 23.0154 18.511 23.4969 18.1383L25.1678 16.8381L25.4307 18.9425C25.5087 19.5464 26.022 19.999 26.6306 20H29.3704C29.979 19.9981 30.4933 19.5454 30.5703 18.9415L30.8332 16.8381L32.505 18.1402C32.9865 18.513 33.6703 18.4706 34.1017 18.0401L36.0403 16.1013C36.4698 15.6698 36.5112 14.986 36.1385 14.5045L34.8384 12.8316L36.9407 12.5686C37.5455 12.4925 37.999 11.9792 38 11.3695V8.62949C37.999 8.01984 37.5455 7.5065 36.9407 7.43042L34.8384 7.16749L36.1394 5.49456C36.5121 5.013 36.4688 4.32919 36.0393 3.89772L34.1017 1.95993C33.6703 1.52942 32.9856 1.48705 32.504 1.86073L30.8332 3.16094L30.5703 1.0575C30.4923 0.453626 29.979 0.000963113 29.3694 0H26.6296C26.02 0.000963113 25.5067 0.453626 25.4297 1.05846L25.1668 3.16094L23.495 1.85977C23.0135 1.48705 22.3297 1.52942 21.8983 1.95993L19.9597 3.89868C19.5312 4.33015 19.4888 5.01397 19.8615 5.49552L21.1616 7.16749L19.0593 7.43042C18.4545 7.5065 18.001 8.0208 18 8.62949V11.3695C18.0019 11.9792 18.4555 12.4925 19.0603 12.5686ZM19.5399 8.92228L21.8627 8.63238C22.1545 8.59578 22.4 8.39642 22.4954 8.11808C22.5743 7.88789 22.6678 7.66253 22.7766 7.4439C22.9066 7.17904 22.8748 6.8641 22.6938 6.63199L21.255 4.78571L22.7814 3.25436L24.6275 4.69132C24.8596 4.87239 25.1745 4.90513 25.4384 4.77511C25.6579 4.66628 25.8833 4.57286 26.1144 4.49388C26.3927 4.39854 26.5921 4.15294 26.6296 3.86208L26.9243 1.53905H29.0776L29.3675 3.86208C29.4041 4.15391 29.6044 4.3995 29.8827 4.49388C30.1138 4.57286 30.3392 4.66724 30.5587 4.77511C30.8236 4.9061 31.1394 4.87335 31.3725 4.69132L33.2186 3.25436L34.745 4.77993L33.3043 6.62622C33.1233 6.85833 33.0915 7.17423 33.2215 7.43812C33.3303 7.65675 33.4237 7.88212 33.5027 8.1123C33.598 8.39064 33.8426 8.59 34.1344 8.6266L36.4592 8.92131V11.0758L34.1364 11.3657C33.8446 11.4023 33.599 11.6017 33.5046 11.88C33.4257 12.1102 33.3313 12.3355 33.2234 12.5542C33.0934 12.819 33.1262 13.134 33.3062 13.3661L34.745 15.2124L33.2186 16.7437L31.3725 15.3058C31.1404 15.1247 30.8255 15.092 30.5607 15.222C30.3421 15.3299 30.1158 15.4243 29.8846 15.5032C29.6063 15.5986 29.407 15.8442 29.3704 16.136L29.0757 18.459H26.9224L26.6325 16.136C26.5959 15.8442 26.3966 15.5986 26.1183 15.5032C25.8871 15.4243 25.6608 15.3299 25.4422 15.222C25.1774 15.092 24.8625 15.1247 24.6304 15.3058L22.7843 16.7437L21.2569 15.2172L22.6957 13.3709C22.8767 13.1388 22.9095 12.8229 22.7785 12.559C22.6706 12.3404 22.5763 12.115 22.4973 11.8848C22.402 11.6065 22.1564 11.4071 21.8646 11.3705L19.5399 11.0758V8.92228Z" fill="#E30613"/>
<path d="M28 15C30.7619 15 33 12.7609 33 10C33 7.2381 30.7619 5 28 5C25.2391 5 23 7.2381 23 10C23.0031 12.7609 25.2402 14.9979 28 15ZM28 6.66736C29.8416 6.66736 31.3337 8.15943 31.3337 10.001C31.3337 11.8416 29.8416 13.3347 28 13.3347C26.1594 13.3347 24.6663 11.8427 24.6663 10.001C24.6663 8.15943 26.1594 6.66736 28 6.66736Z" fill="#E30613"/>
<path d="M6.07624 25.5448C6.21394 25.5448 6.34935 25.5138 6.47328 25.4529C6.70279 25.3428 6.87722 25.1442 6.9564 24.9032C7.08722 24.4911 6.94033 24.226 6.64656 23.6946C5.98902 22.5032 3.98886 18.882 5.20296 15.9276C5.89607 14.2461 10.539 12.8872 13.0338 12.1583C13.6053 11.9919 14.1205 11.8415 14.5428 11.7061C14.9226 11.5833 15.1797 11.2298 15.1774 10.8304L15.1579 3.66712C15.1395 3.38936 15.0007 3.13341 14.778 2.96698C14.5485 2.79367 14.2559 2.7271 13.9748 2.78334C8.76263 3.83699 2.55673 5.53339 0.821645 9.29119C-2.18376 15.7991 3.92689 23.8197 5.25345 25.1281C5.46345 25.3703 5.75837 25.5195 6.07624 25.5448ZM3.51033 15.224C3.13509 16.1549 2.95837 17.1546 2.98935 18.1566C1.90837 15.6234 1.29673 12.6404 2.48902 10.0602C3.8764 7.0496 10.0961 5.47715 13.331 4.7862L13.3471 10.1463C13.0912 10.2232 12.8146 10.3035 12.522 10.3885C8.31279 11.6223 4.4582 12.917 3.50804 15.2229H3.51033V15.224Z" fill="#7C7C7D"/>
<path d="M41.4549 11.7004C41.8772 11.8358 42.3925 11.9862 42.9651 12.1537C45.4598 12.8872 50.1028 14.2404 50.7959 15.923C52.0123 18.8762 50.0087 22.4986 49.3523 23.6888C49.0585 24.2214 48.9105 24.4877 49.0425 24.8997C49.1216 25.1408 49.2938 25.3393 49.5221 25.4495C49.6461 25.5103 49.7803 25.5413 49.918 25.5413C50.2359 25.5207 50.5331 25.3749 50.7431 25.135C52.072 23.8266 58.1872 15.8082 55.1772 9.29579C53.4421 5.5334 47.2362 3.84044 42.0241 2.78794L41.9392 2.77072C41.6695 2.71563 41.3907 2.78449 41.1772 2.95781C40.9638 3.13112 40.8398 3.39052 40.8398 3.66598L40.8215 10.8269C40.8192 11.224 41.0762 11.5776 41.4549 11.7004ZM42.6702 4.78965C45.8271 5.46109 52.1156 7.03469 53.5133 10.0659C54.7044 12.645 54.0916 15.6269 53.0118 18.1612C53.0428 17.158 52.8649 16.1583 52.4897 15.2275C51.5395 12.9216 47.6849 11.6269 43.4769 10.3965C43.1854 10.3127 42.91 10.2312 42.6518 10.1543L42.6702 4.78965Z" fill="#7C7C7D"/>
</g>
<defs>
<filter id="filter0_d" x="-3.99973" y="0" width="64" height="63.0012" filterUnits="userSpaceOnUse" color-interpolation-filters="sRGB">
<feFlood flood-opacity="0" result="BackgroundImageFix"/>
<feColorMatrix in="SourceAlpha" type="matrix" values="0 0 0 0 0 0 0 0 0 0 0 0 0 0 0 0 0 0 127 0"/>
<feOffset dy="4"/>
<feGaussianBlur stdDeviation="2"/>
<feColorMatrix type="matrix" values="0 0 0 0 0 0 0 0 0 0 0 0 0 0 0 0 0 0 0.25 0"/>
<feBlend mode="normal" in2="BackgroundImageFix" result="effect1_dropShadow"/>
<feBlend mode="normal" in="SourceGraphic" in2="effect1_dropShadow" result="shape"/>
</filter>
</defs>
</svg>

<svg width="56" height="55" viewBox="0 0 56 55" fill="none" xmlns="http://www.w3.org/2000/svg"><g filter="url(#filter0_d)"><path d="M46.977 35.506a6.562 6.562 0 002.55-5.255 6.207 6.207 0 00-5.957-6.418 5.662 5.662 0 00-3.711 1.402 6.713 6.713 0 00.228 10.217c.013.01.028.016.04.027a12.303 12.303 0 00-5.97 5.289 10.554 10.554 0 00-2.75-1.606c.472-.357.89-.78 1.243-1.255a6.665 6.665 0 001.297-3.99 6.443 6.443 0 00-5.957-6.418 6.063 6.063 0 00-5.86 5.31 6.176 6.176 0 00-.097 1.108 6.562 6.562 0 002.538 5.245c-.993.394-1.92.935-2.75 1.606a12.43 12.43 0 00-5.668-5.171 6.551 6.551 0 002.671-5.348 6.207 6.207 0 00-5.957-6.417 6.207 6.207 0 00-5.956 6.418 6.575 6.575 0 002.415 5.146C4.272 37.202.542 43.242.542 50.417c0 .506.41.917.917.917H16.36c-.13.911-.2 1.83-.206 2.75 0 .506.41.917.917.917h21.84c.506 0 .917-.41.917-.917a20.236 20.236 0 00-.207-2.75h14.902c.506 0 .917-.41.917-.917-.001-7.023-3.572-12.971-8.463-14.91zm-7.531-5.256a4.728 4.728 0 011.608-3.628 3.843 3.843 0 012.516-.957 4.377 4.377 0 014.124 4.583 4.377 4.377 0 01-4.124 4.583c-.856 0-1.686-.29-2.355-.825a4.735 4.735 0 01-1.77-3.756zm-15.58 3.667c0-.27.022-.539.07-.804a4.25 4.25 0 014.054-3.78 4.257 4.257 0 014.056 3.8c.046.26.07.52.068.782a4.837 4.837 0 01-.94 2.903 3.954 3.954 0 01-3.184 1.68 4.374 4.374 0 01-4.125-4.581zm-10.999-8.25a4.377 4.377 0 014.125 4.582 4.377 4.377 0 01-4.125 4.584 4.377 4.377 0 01-4.124-4.583 4.377 4.377 0 014.124-4.584zM16.683 49.5H2.396c.348-7.155 4.726-12.833 10.06-12.833 3.136 0 6.09 2.007 8.001 5.398a16.506 16.506 0 00-3.774 7.435zm1.325 3.667c.04-.867.144-1.727.308-2.579a14.627 14.627 0 013.9-7.72.695.695 0 00.068-.075 8.228 8.228 0 015.706-2.46 8.227 8.227 0 015.705 2.458.717.717 0 00.07.076 14.628 14.628 0 013.9 7.722c.163.85.265 1.712.306 2.576H18.008v.002zM39.296 49.5a16.473 16.473 0 00-3.774-7.434c1.912-3.392 4.866-5.4 8.002-5.4 5.334 0 9.715 5.679 10.06 12.834H39.295z" fill="#7C7C7D"/><path d="M19.06 12.569l2.103.263-1.302 1.672a1.212 1.212 0 00.1 1.597L21.9 18.04c.433.43 1.116.472 1.598.1l1.67-1.3.264 2.104A1.212 1.212 0 0026.63 20h2.74a1.213 1.213 0 001.2-1.058l.262-2.104 1.672 1.302a1.21 1.21 0 001.597-.1l1.938-1.939c.43-.431.471-1.115.099-1.596l-1.3-1.673 2.102-.263a1.21 1.21 0 001.059-1.2V8.63a1.21 1.21 0 00-1.06-1.199l-2.102-.263 1.301-1.672a1.212 1.212 0 00-.1-1.597L34.102 1.96a1.211 1.211 0 00-1.598-.1l-1.67 1.3-.264-2.103A1.213 1.213 0 0029.37 0h-2.74a1.21 1.21 0 00-1.2 1.058l-.263 2.103-1.672-1.301a1.211 1.211 0 00-1.597.1L19.96 3.899a1.213 1.213 0 00-.099 1.597l1.3 1.671-2.102.263A1.21 1.21 0 0018 8.63v2.74c.002.61.456 1.123 1.06 1.199zm.48-3.647l2.323-.29a.77.77 0 00.632-.514c.08-.23.173-.455.282-.674a.769.769 0 00-.083-.812l-1.439-1.846 1.526-1.532 1.847 1.437a.767.767 0 00.81.084c.22-.109.445-.202.676-.281a.772.772 0 00.516-.632l.294-2.323h2.154l.29 2.323a.768.768 0 00.515.632c.23.079.456.173.676.281.265.131.58.098.813-.084l1.847-1.437 1.526 1.526-1.44 1.846a.769.769 0 00-.084.812c.11.219.203.444.282.674.095.279.34.478.631.515l2.325.294v2.155l-2.323.29a.767.767 0 00-.631.514c-.08.23-.174.455-.282.674a.77.77 0 00.083.812l1.439 1.846-1.526 1.532-1.847-1.438a.768.768 0 00-.811-.084 5.66 5.66 0 01-.676.281.77.77 0 00-.515.633l-.294 2.323h-2.154l-.29-2.323a.77.77 0 00-.514-.633 5.66 5.66 0 01-.676-.281.768.768 0 00-.812.084l-1.846 1.438-1.527-1.527 1.439-1.846a.767.767 0 00.082-.812 5.718 5.718 0 01-.28-.674.77.77 0 00-.633-.514l-2.325-.295V8.922z" fill="#E30613"/><path d="M28 15a5 5 0 100-10 5 5 0 000 10zm0-8.333a3.333 3.333 0 11.001 6.667A3.333 3.333 0 0128 6.667z" fill="#E30613"/><path d="M6.076 25.545a.933.933 0 00.88-.642c.131-.412-.016-.677-.31-1.208-.657-1.192-2.657-4.813-1.443-7.767.693-1.682 5.336-3.04 7.83-3.77a62.656 62.656 0 001.51-.452.915.915 0 00.634-.876l-.02-7.163a.953.953 0 00-.379-.7 1.006 1.006 0 00-.803-.184C8.763 3.837 2.557 5.533.822 9.291-2.184 15.8 3.927 23.82 5.253 25.128c.21.242.505.392.823.417zM3.51 15.224a7.248 7.248 0 00-.52 2.933c-1.082-2.534-1.693-5.517-.501-8.097 1.387-3.01 7.607-4.583 10.842-5.274l.016 5.36c-.256.077-.532.157-.825.242-4.21 1.234-8.064 2.529-9.014 4.835h.002v.001zM41.455 11.7c.422.136.938.286 1.51.454 2.495.733 7.138 2.086 7.83 3.769 1.217 2.953-.786 6.576-1.443 7.766-.293.532-.441.799-.31 1.21a.931.931 0 00.876.642 1.2 1.2 0 00.825-.406c1.329-1.308 7.444-9.327 4.434-15.84-1.735-3.762-7.94-5.455-13.153-6.507l-.085-.017a.917.917 0 00-1.1.895l-.017 7.16a.915.915 0 00.633.874zm1.215-6.91c3.157.671 9.446 2.245 10.843 5.276 1.191 2.579.579 5.56-.501 8.095a7.25 7.25 0 00-.522-2.934c-.95-2.305-4.805-3.6-9.013-4.83a89.277 89.277 0 01-.825-.243l.018-5.364z" fill="#7C7C7D"/></g><defs><filter id="filter0_d" x="-4" y="0" width="64" height="63.001" filterUnits="userSpaceOnUse" color-interpolation-filters="sRGB"><feFlood flood-opacity="0" result="BackgroundImageFix"/><feColorMatrix in="SourceAlpha" values="0 0 0 0 0 0 0 0 0 0 0 0 0 0 0 0 0 0 127 0"/><feOffset dy="4"/><feGaussianBlur stdDeviation="2"/><feColorMatrix values="0 0 0 0 0 0 0 0 0 0 0 0 0 0 0 0 0 0 0.25 0"/><feBlend in2="BackgroundImageFix" result="effect1_dropShadow"/><feBlend in="SourceGraphic" in2="effect1_dropShadow" result="shape"/></filter></defs></svg>
